images/class_icons/fire_knight.svg

<svg height="400" viewBox="0 0 400 400" width="400" xmlns="http://www.w3.org/2000/svg"><path d="m165.517 3.16c-2.221.081-5.724.291-7.783.466-9.496.808-21.503 1.054-35.752.733-7.753-.175-9.774-.169-9.897.026-.084.135-.883 1.886-1.774 3.891-6.752 15.186-14.393 27.391-21.838 34.885-16.691 16.798-33.193 6.921-49.068-29.368-2.218-5.071-2.909-6.502-3.14-6.502-.713 0-6.114 13.073-8.06 19.507-24.305 80.389 46.201 158.632 153.667 170.531 6.482.718 19.979 1.674 20.221 1.432.038-.038-1.903-1.712-4.312-3.72-49.308-41.091-66.684-72.269-54.579-97.932l.989-2.096 4.604-3.052c6.614-4.385 27.922-18.921 32.934-22.467 1.384-.98 2.476-1.876 2.427-1.992-5.893-13.843-.613-30.392 11.536-36.159 8.58-4.073 24.489-6.303 35.398-4.961 2.835.348 2.831.424.101-1.947-17.684-15.354-38.981-22.253-65.674-21.275m119.705 8.647c-17.117 17.437-29.703 30.225-55.616 56.508-14.766 14.978-26.847 27.28-26.847 27.339 0 .437 12.62 19.208 12.92 19.217.116.003 3.522-3.371 7.57-7.498l7.359-7.504 34.341 34.341 34.34 34.34-3.585 3.66c-18.49 18.872-23.98 24.523-23.98 24.681 0 .101 1.891 2.948 4.201 6.326 2.311 3.378 5.21 7.628 6.443 9.443s2.294 3.301 2.357 3.301c.22 0 107.862-109.044 110.035-111.468l.968-1.079-7.962-7.963c-4.379-4.38-8.05-7.958-8.159-7.951s-.543.428-.964.936-3.271 3.717-6.332 7.131c-3.062 3.413-5.952 6.663-6.421 7.222l-.854 1.016-26.902-26.767c-44.228-44.005-44.255-44.031-43.799-44.351.731-.513 15.222-13.451 15.222-13.591 0-.21-15.771-15.446-16.031-15.485-.124-.019-3.861 3.669-8.304 8.196m27.568 73.414 34.437 34.581-1.84 1.943c-4.573 4.828-29.244 29.973-29.364 29.929-.075-.026-15.6-15.566-34.501-34.531l-34.365-34.483 15.565-16.01c8.561-8.805 15.58-16.01 15.598-16.01s15.529 15.562 34.47 34.581m-130.49 1.419c-.409.16-21.347 14.38-21.955 14.911-.314.273-.542.675-.542.952 0 .551-.097.432 6.216 7.645 5.97 6.82 8.424 9.773 11.217 13.497 3.383 4.511 33.632 48.82 88.38 129.458 10.006 14.739 25.391 37.395 34.188 50.345 8.797 12.951 26.526 39.109 39.398 58.128 26.086 38.545 23.8 35.271 24.622 35.271.643 0 8.184-9.215 10.005-12.226 2.596-4.294 3.475-9.762 2.106-13.105-.575-1.404-4.737-7.535-58.988-86.885-53.066-77.618-69.637-101.93-89.986-132.02-3.957-5.852-9.486-13.921-12.286-17.931-17.592-25.191-22.649-32.877-29.104-44.237-1.078-1.896-2.019-3.504-2.091-3.574-.214-.206-.899-.339-1.18-.229m-100.058 131.045c-14.839 15.037-36.327 36.827-47.752 48.423-11.426 11.596-22.892 23.222-25.481 25.836l-4.708 4.751 8.092 8.253c4.451 4.54 8.205 8.272 8.343 8.295.137.023.833-.731 1.547-1.675s3.104-3.888 5.312-6.543c2.208-2.656 4.94-5.981 6.072-7.39 1.132-1.408 2.124-2.561 2.205-2.561.126 0 14.937 14.635 61.747 61.013l9.475 9.388-1.672 1.548c-1.424 1.32-8.254 7.717-13.156 12.323-.786.738-1.429 1.405-1.429 1.481 0 .136 15.347 15.668 15.595 15.783.117.055 47.543-47.964 110.11-111.487 14.678-14.901 28.175-28.602 29.995-30.447l3.308-3.353-6.548-9.601c-3.602-5.28-6.604-9.601-6.673-9.602-.068-.001-3.122 3.08-6.787 6.846s-8.015 8.228-9.668 9.915l-3.005 3.069-1.833-1.851c-1.008-1.019-10.848-10.804-21.865-21.746l-20.032-19.894-3.712-.577c-20.567-3.196-40.056-8.729-57.888-16.435-1.403-.606-2.565-1.102-2.582-1.102-.018 0-12.172 12.303-27.01 27.34m83.298 16.244c18.958 18.877 34.444 34.385 34.415 34.462-.03.077-6.482 6.898-14.339 15.159s-14.613 15.386-15.012 15.834l-.727.813-34.581-34.569-34.582-34.569 4.477-4.643c2.462-2.553 8.374-8.721 13.138-13.707 10.506-10.994 12.544-13.103 12.656-13.103.048 0 15.598 15.445 34.555 34.323m-13.04 82.327.356.493-9.384 9.895c-16.579 17.483-20.612 21.696-20.738 21.664-.068-.018-15.654-15.519-34.637-34.448l-34.513-34.415 7.543-7.962c4.149-4.379 10.955-11.571 15.125-15.982l7.582-8.021 34.155 34.142c18.785 18.778 34.315 34.363 34.511 34.634" fill-rule="evenodd"/></svg>

<svg id="svg" xmlns="http://www.w3.org/2000/svg" xmlns:xlink="http://www.w3.org/1999/xlink" width="400" height="400" viewBox="0, 0, 400,400"><g id="svgg"><path id="path0" d="M165.517 3.160 C 163.296 3.241,159.793 3.451,157.734 3.626 C 148.238 4.434,136.231 4.680,121.982 4.359 C 114.229 4.184,112.208 4.190,112.085 4.385 C 112.001 4.520,111.202 6.271,110.311 8.276 C 103.559 23.462,95.918 35.667,88.473 43.161 C 71.782 59.959,55.280 50.082,39.405 13.793 C 37.187 8.722,36.496 7.291,36.265 7.291 C 35.552 7.291,30.151 20.364,28.205 26.798 C 3.900 107.187,74.406 185.430,181.872 197.329 C 188.354 198.047,201.851 199.003,202.093 198.761 C 202.131 198.723,200.190 197.049,197.781 195.041 C 148.473 153.950,131.097 122.772,143.202 97.109 L 144.191 95.013 148.795 91.961 C 155.409 87.576,176.717 73.040,181.729 69.494 C 183.113 68.514,184.205 67.618,184.156 67.502 C 178.263 53.659,183.543 37.110,195.692 31.343 C 204.272 27.270,220.181 25.040,231.090 26.382 C 233.925 26.730,233.921 26.806,231.191 24.435 C 213.507 9.081,192.210 2.182,165.517 3.160 M285.222 11.807 C 268.105 29.244,255.519 42.032,229.606 68.315 C 214.840 83.293,202.759 95.595,202.759 95.654 C 202.759 96.091,215.379 114.862,215.679 114.871 C 215.795 114.874,219.201 111.500,223.249 107.373 L 230.608 99.869 264.949 134.210 L 299.289 168.550 295.704 172.210 C 277.214 191.082,271.724 196.733,271.724 196.891 C 271.724 196.992,273.615 199.839,275.925 203.217 C 278.236 206.595,281.135 210.845,282.368 212.660 C 283.601 214.475,284.662 215.961,284.725 215.961 C 284.945 215.961,392.587 106.917,394.760 104.493 L 395.728 103.414 387.766 95.451 C 383.387 91.071,379.716 87.493,379.607 87.500 C 379.498 87.507,379.064 87.928,378.643 88.436 C 378.222 88.944,375.372 92.153,372.311 95.567 C 369.249 98.980,366.359 102.230,365.890 102.789 L 365.036 103.805 338.134 77.038 C 293.906 33.033,293.879 33.007,294.335 32.687 C 295.066 32.174,309.557 19.236,309.557 19.096 C 309.557 18.886,293.786 3.650,293.526 3.611 C 293.402 3.592,289.665 7.280,285.222 11.807 M312.790 85.221 L 347.227 119.802 345.387 121.745 C 340.814 126.573,316.143 151.718,316.023 151.674 C 315.948 151.648,300.423 136.108,281.522 117.143 L 247.157 82.660 262.722 66.650 C 271.283 57.845,278.302 50.640,278.320 50.640 C 278.338 50.640,293.849 66.202,312.790 85.221 M182.300 86.640 C 181.891 86.800,160.953 101.020,160.345 101.551 C 160.031 101.824,159.803 102.226,159.803 102.503 C 159.803 103.054,159.706 102.935,166.019 110.148 C 171.989 116.968,174.443 119.921,177.236 123.645 C 180.619 128.156,210.868 172.465,265.616 253.103 C 275.622 267.842,291.007 290.498,299.804 303.448 C 308.601 316.399,326.330 342.557,339.202 361.576 C 365.288 400.121,363.002 396.847,363.824 396.847 C 364.467 396.847,372.008 387.632,373.829 384.621 C 376.425 380.327,377.304 374.859,375.935 371.516 C 375.360 370.112,371.198 363.981,316.947 284.631 C 263.881 207.013,247.310 182.701,226.961 152.611 C 223.004 146.759,217.475 138.690,214.675 134.680 C 197.083 109.489,192.026 101.803,185.571 90.443 C 184.493 88.547,183.552 86.939,183.480 86.869 C 183.266 86.663,182.581 86.530,182.300 86.640 M82.242 217.685 C 67.403 232.722,45.915 254.512,34.490 266.108 C 23.064 277.704,11.598 289.330,9.009 291.944 L 4.301 296.695 12.393 304.948 C 16.844 309.488,20.598 313.220,20.736 313.243 C 20.873 313.266,21.569 312.512,22.283 311.568 C 22.997 310.624,25.387 307.680,27.595 305.025 C 29.803 302.369,32.535 299.044,33.667 297.635 C 34.799 296.227,35.791 295.074,35.872 295.074 C 35.998 295.074,50.809 309.709,97.619 356.087 L 107.094 365.475 105.422 367.023 C 103.998 368.343,97.168 374.740,92.266 379.346 C 91.480 380.084,90.837 380.751,90.837 380.827 C 90.837 380.963,106.184 396.495,106.432 396.610 C 106.549 396.665,153.975 348.646,216.542 285.123 C 231.220 270.222,244.717 256.521,246.537 254.676 L 249.845 251.323 243.297 241.722 C 239.695 236.442,236.693 232.121,236.624 232.120 C 236.556 232.119,233.502 235.200,229.837 238.966 C 226.172 242.732,221.822 247.194,220.169 248.881 L 217.164 251.950 215.331 250.099 C 214.323 249.080,204.483 239.295,193.466 228.353 L 173.434 208.459 169.722 207.882 C 149.155 204.686,129.666 199.153,111.834 191.447 C 110.431 190.841,109.269 190.345,109.252 190.345 C 109.234 190.345,97.080 202.648,82.242 217.685 M165.540 233.929 C 184.498 252.806,199.984 268.314,199.955 268.391 C 199.925 268.468,193.473 275.289,185.616 283.550 C 177.759 291.811,171.003 298.936,170.604 299.384 L 169.877 300.197 135.296 265.628 L 100.714 231.059 105.191 226.416 C 107.653 223.863,113.565 217.695,118.329 212.709 C 128.835 201.715,130.873 199.606,130.985 199.606 C 131.033 199.606,146.583 215.051,165.540 233.929 M152.500 316.256 L 152.856 316.749 143.472 326.644 C 126.893 344.127,122.860 348.340,122.734 348.308 C 122.666 348.290,107.080 332.789,88.097 313.860 L 53.584 279.445 61.127 271.483 C 65.276 267.104,72.082 259.912,76.252 255.501 L 83.834 247.480 117.989 281.622 C 136.774 300.400,152.304 315.985,152.500 316.256 " stroke="none" fill="#000000" fill-rule="evenodd"></path></g></svg>
